img/article-letter.svg

<svg width="81" height="73" viewBox="0 0 81 73" fill="none" xmlns="http://www.w3.org/2000/svg">
<path d="M80.0414 0.449995V73H66.7914V28.45C66.7914 27.5167 66.8081 26.5167 66.8414 25.45C66.9081 24.3833 67.0081 23.3 67.1414 22.2L46.3914 61.55C45.2581 63.7167 43.5081 64.8 41.1414 64.8H39.0414C37.8747 64.8 36.8414 64.5333 35.9414 64C35.0414 63.4333 34.3247 62.6167 33.7914 61.55L12.9414 22.05C13.0414 23.2167 13.1247 24.35 13.1914 25.45C13.2581 26.5167 13.2914 27.5167 13.2914 28.45V73H0.0414068V0.449995H11.4414C12.0747 0.449995 12.6414 0.466663 13.1414 0.499998C13.6414 0.533329 14.0747 0.633327 14.4414 0.799994C14.8414 0.933329 15.1914 1.16666 15.4914 1.5C15.8247 1.79999 16.1414 2.23333 16.4414 2.8L36.7414 41.5C37.3747 42.6667 37.9581 43.8667 38.4914 45.1C39.0581 46.3333 39.5914 47.6 40.0914 48.9C40.5914 47.5667 41.1081 46.2667 41.6414 45C42.2081 43.7333 42.8081 42.5167 43.4414 41.35L63.5914 2.8C63.8914 2.23333 64.2081 1.79999 64.5414 1.5C64.8747 1.16666 65.2247 0.933329 65.5914 0.799994C65.9914 0.633327 66.4247 0.533329 66.8914 0.499998C67.3914 0.466663 67.9747 0.449995 68.6414 0.449995H80.0414Z" fill="#4592FF"/>
</svg>

<svg width="81" height="73" fill="none" xmlns="http://www.w3.org/2000/svg"><path d="M80.041.45V73h-13.25V28.45c0-.933.017-1.933.05-3a56.14 56.14 0 01.3-3.25l-20.75 39.35c-1.133 2.167-2.883 3.25-5.25 3.25h-2.1c-1.166 0-2.2-.267-3.1-.8-.9-.567-1.616-1.383-2.15-2.45l-20.85-39.5c.1 1.167.184 2.3.25 3.4.067 1.067.1 2.067.1 3V73H.041V.45h11.4c.634 0 1.2.017 1.7.05s.934.133 1.3.3c.4.133.75.367 1.05.7.334.3.65.733.95 1.3l20.3 38.7a44.883 44.883 0 011.75 3.6c.567 1.233 1.1 2.5 1.6 3.8a105.7 105.7 0 011.55-3.9 53.118 53.118 0 011.8-3.65L63.591 2.8c.3-.567.617-1 .95-1.3.334-.333.684-.567 1.05-.7a4.12 4.12 0 011.3-.3 26.7 26.7 0 011.75-.05h11.4z" fill="#4592FF"/></svg>
